X: 25474
T: Marchioness Of Huntly's, The
R: jig
M: 6/8
K: Cdorian
f|:dfd ~B3|FBF D2C|B,FB fdB|Acc cde|
dfd ~B3|FBF D2G|E2g f2a|1 dBB B2f:|2 dBB Bde||
|:fed bed|fed bed|fga bfd|Acc cde|
[1fed bag|fed c2A|GAB cde|dBB Bde:|
[2fed edc|BAG FED|E2g fga|dBB B2||

